X:1
T:darklandsmarch project
T:darklandsmarch project
T:trevorboutwell
C:trevorboutwell
L:1/8
M:4/4
K:C
V:1 bass nm="Tuba" snm="Tba."
V:1
 C,,2 !tenuto!_E,,2 .G,,.G,, z2 | !tenuto!D,,2 !tenuto!F,,2 ._A,,.A,, z2 | %2
 !tenuto!C,,!tenuto!_E,,.G,,.G,, !tenuto!D,,!tenuto!F,,._A,,.A,, | %3
 !tenuto!G,,!tenuto!G,,._E,,.C,, !tenuto!_A,,!tenuto!A,,.F,,.D,, | z2 .D,, _A,,2 z .D,,A,,- | %5
 A,, z .C,, G,,2 z .C,,G,,- | G,, z .D,, _A,,2 z .D,,A,,- | %7
 A,,!>!_A,,/ z2 !tenuto!C,, z/ ._E,,/G,,G,,C,,/ |] z8 | z8 | z8 | z8 | z8 | z8 | z8 | z8 | z8 | %17
 z8 | z8 | z8 | z8 | z8 | z8 | z8 | z8 | z8 | z8 | z8 | z8 | z8 | z8 | z8 | %32

